X: 106204
T: SWEET MOLLY
Q: "Reel."
R:  Reel.
%R: reel
B: James Kerr "Merry Melodies" v.1 p.6 s.2 #4
Z: 2017 John Chambers <jc:trillian.mit.edu>
M: C
L: 1/8
K: Em
|: B |\
E<E BE dEBe | dBAF DEFD |\
E<E BE dEBe | dBAF (B2E :|\
F |\
Eeef gfed | BdBG DEFD |
Eeef gfed | BdAF B2(EF) |\
Eeef gfed | BdAF DEFA |\
afge fde^c | dBAF (B2E) |]\
"_Fine"{e}e4 ||

% %newpage
%%sep 1 1 500
%%sep 1 1 500
%%center Set. 8th.

%%sep 1 1 500
%%sep 1 1 500

